packages/core/src/svgs/pib.svg

<svg width="24" height="24" viewBox="0 0 24 24" fill="none" xmlns="http://www.w3.org/2000/svg">
<g clip-path="url(#clip0_31_15953)">
<path d="M0 0H24V24H0V0Z" fill="url(#paint0_linear_31_15953)"/>
<path d="M6.42847 10.9128V8.1815L9.4919 6.4385L11.8533 7.7945L6.42847 10.9128ZM12.2142 4.71436L9.85704 6.15521L15.4285 9.31807V6.54178L12.2142 4.71436ZM15.857 13.1315V6.77021L18.4285 8.17593V11.7434L15.857 13.1319V13.1315ZM18.4272 14.9032V12.1651L13.0272 15.2842L15.3706 16.7054L18.4272 14.9032ZM9.4289 16.5232V13.7641L15.0003 16.9449L12.6428 18.4286L9.4289 16.5232ZM6.42847 18.7406V12.9914L8.9999 11.5715V20.1429L6.42847 18.7406ZM10.7142 10.4384L12.4285 9.42864L14.1428 10.4384V12.6284L12.4285 13.7144L10.7142 12.6288V10.4384Z" fill="white"/>
</g>
<defs>
<linearGradient id="paint0_linear_31_15953" x1="12" y1="0" x2="12" y2="24" gradientUnits="userSpaceOnUse">
<stop stop-color="#8CB69D"/>
<stop offset="0.191" stop-color="#A2C98A"/>
<stop offset="0.386" stop-color="#C1A879"/>
<stop offset="0.579" stop-color="#DF6B83"/>
<stop offset="0.8" stop-color="#6E7CB4"/>
<stop offset="1" stop-color="#7270AF"/>
</linearGradient>
<clipPath id="clip0_31_15953">
<rect width="24" height="24" fill="white"/>
</clipPath>
</defs>
</svg>

<svg xmlns="http://www.w3.org/2000/svg" width="24" height="24" fill="none" viewBox="0 0 24 24"><g clip-path="url(#a)"><path fill="url(#b)" d="M0 0h24v24H0z"/><path fill="#fff" d="M6.428 10.913V8.18L9.492 6.44l2.361 1.356zm5.786-6.199L9.857 6.155l5.572 3.163V6.542zm3.643 8.418V6.77l2.572 1.406v3.567zm2.57 1.771v-2.738l-5.4 3.12 2.344 1.42zm-8.998 1.62v-2.759L15 16.944l-2.357 1.485zm-3 2.218v-5.75l2.57-1.42v8.572zm4.285-8.303 1.714-1.01 1.715 1.01v2.19l-1.715 1.086-1.714-1.085z"/></g><defs><linearGradient id="b" x1="12" x2="12" y1="0" y2="24" gradientUnits="userSpaceOnUse"><stop stop-color="#8CB69D"/><stop offset=".191" stop-color="#A2C98A"/><stop offset=".386" stop-color="#C1A879"/><stop offset=".579" stop-color="#DF6B83"/><stop offset=".8" stop-color="#6E7CB4"/><stop offset="1" stop-color="#7270AF"/></linearGradient><clipPath id="a"><path fill="#fff" d="M0 0h24v24H0z"/></clipPath></defs></svg>
